client/public/assets/icons/utility/archive.svg

<?xml version="1.0"?><svg xmlns="http://www.w3.org/2000/svg" width="52" height="52" viewBox="0 0 52 52"><path fill="#fff" d="m45.2 2.3h-38.4c-2.6 0-4.8 2.2-4.8 4.8v4.8c0 0.9 0.7 1.6 1.6 1.6h44.8c0.9 0 1.6-0.7 1.6-1.6v-4.8c0-2.6-2.2-4.8-4.8-4.8z m1.4 15.2h-41.1c-0.9 0-1.6 0.7-1.6 1.6v26.4c0 2.6 2.2 4.8 4.8 4.8h34.8c2.6 0 4.8-2.2 4.8-4.8v-26.4c-0.1-0.9-0.8-1.6-1.7-1.6z m-13.8 8h-13.6c-1.1 0-2-0.9-2-2s0.9-2 2-2h13.6c1.1 0 2 0.9 2 2s-0.9 2-2 2z"></path></svg>

<?xml version="1.0" encoding="utf-8"?>
<!-- Generator: Adobe Illustrator 21.1.0, SVG Export Plug-In . SVG Version: 6.00 Build 0)  -->
<svg version="1.1" id="Layer_1" xmlns="http://www.w3.org/2000/svg" xmlns:xlink="http://www.w3.org/1999/xlink" x="0px" y="0px"
	 width="52px" height="52px" viewBox="0 0 52 52" enable-background="new 0 0 52 52" xml:space="preserve">
<path fill="#FFFFFF" d="M45.2,2.3H6.8C4.2,2.3,2,4.5,2,7.1v4.8c0,0.9,0.7,1.6,1.6,1.6h44.8c0.9,0,1.6-0.7,1.6-1.6V7.1
	C50,4.5,47.8,2.3,45.2,2.3z"/>
<path fill="#FFFFFF" d="M46.6,17.5H5.5c-0.9,0-1.6,0.7-1.6,1.6v26.4c0,2.6,2.2,4.8,4.8,4.8h34.8c2.6,0,4.8-2.2,4.8-4.8V19.1
	C48.2,18.2,47.5,17.5,46.6,17.5z M32.8,25.5H19.2c-1.1,0-2-0.9-2-2s0.9-2,2-2h13.6c1.1,0,2,0.9,2,2C34.8,24.6,33.9,25.5,32.8,25.5z"
	/>
</svg>
